X: 1
T: la Chapelloise
T: Kreisverkehr
C: (Trad. Germany)
Z: 2014 John Chambers <jc:trillian.mit.edu>
M: 6/8
L: 1/8
K: Am
zE |\
A2A ABc | B2B Bcd | e2e edc | B3 B3 |\
A2A ABc | B2B Bcd | edc dcB | A3 A |]
cd |\
e2e ede | fgf edc | Bcd ecd | c2B Acd |\
e2e ede | fgf edc | Bcd eBc | A3 A |]
